www/images/swipe-left@2x.svg

<svg fill="none" height="55" viewBox="0 0 55 55" width="55" xmlns="http://www.w3.org/2000/svg"><path d="m17.996 19.0135c.0745.0817.1646.1477.2651.1939.1004.0462.2092.0717.3197.0751.1105.0033.2206-.0156.3237-.0556s.1971-.1004.2764-.1775.1423-.1693.1852-.2712.0649-.2114.0647-.322-.0227-.22-.066-.3217c-.0434-.1018-.1067-.1937-.1863-.2705l-1.1-1.144h6.05c.2188 0 .4286-.0869.5833-.2416.1548-.1548.2417-.3646.2417-.5834s-.0869-.4287-.2417-.5834c-.1547-.1547-.3645-.2416-.5833-.2416h-6.05l1.1-1.144c.0796-.0768.1429-.1687.1863-.2705.0433-.1017.0658-.2111.066-.3217s-.0218-.2201-.0647-.322-.1059-.1942-.1852-.2712c-.0793-.0771-.1733-.1375-.2764-.1775s-.2132-.0589-.3237-.0556c-.1105.0034-.2193.0289-.3197.0751-.1005.0462-.1906.1122-.2651.1939l-2.4695 2.541c-.1495.154-.2332.3601-.2332.5747 0 .2147.0837.4208.2332.5748z" fill="#000"/><path d="m38.401 29.502c-.1349-.3213-.3322-.6127-.5805-.8572s-.5426-.4373-.866-.5673l-.1045-.0275c-.3283-.1327-.6799-.1982-1.034-.1925.1218-.397.1483-.817.0776-1.2262s-.2368-.7959-.4847-1.129-.5708-.6031-.9425-.7883c-.3716-.1851-.7816-.2802-1.1969-.2775l2.3155-5.7365c.2622-.6494.2573-1.3761-.0136-2.0219s-.7859-1.1585-1.4329-1.4266c-.5275-.2178-1.1118-.2572-1.6639-.1122-.552.1449-1.0416.4663-1.3941.9152-.3013-.33-.6814-.5781-1.1047-.7211s-.8761-.1762-1.3157-.0966c-.4397.0797-.852.2697-1.1982.5522s-.6151.6483-.7814 1.063l-3.7015 9.097-.0385-.2035c.0016-.0311.0016-.0624 0-.0935-.1074-.3348-.2814-.6443-.5116-.9101-.2302-.2657-.5117-.4822-.8277-.6363-.316-.1542-.6599-.2428-1.011-.2606s-.7022.0356-1.0322.157c-.6166.2207-1.1281.6645-1.4336 1.2439-.3054.5793-.3826 1.2521-.2164 1.8856l2.024 10.67-1.419 3.5145c-.0446.1019-.0682.2118-.0693.323-.0011.1113.0203.2216.063.3244.0426.1027.1056.1958.1852.2736.0795.0778.174.1387.2776.179l10.1145 4.0865c.1019.0447.2118.0682.3231.0693.1112.0011.2215-.0203.3243-.0629.1028-.0427.1958-.1057.2736-.1852.0778-.0796.1387-.174.179-.2777l1.4135-3.498 3.047-1.947c.1436-.0922.2551-.2268.319-.385l3.487-8.6295c.1337-.3326.1983-.689.1898-1.0473-.0085-.3584-.0899-.7113-.2393-1.0372zm-1.5125 1.4135-3.388 8.3875-3.0415 1.947c-.1436.0922-.255.2268-.319.385l-1.2045 2.9755-8.5855-3.465 1.199-2.9755c.0589-.1465.0742-.307.044-.462l-2.068-10.945s0-.0495 0-.0715c-.0662-.2334-.0417-.4833.0684-.6995s.2979-.3828.5256-.4665c.2357-.0879.4966-.0795.7261.0234.2295.103.4093.2921.5004.5266l.55 2.915c.0239.1798.1063.3468.2345.475.1283.1283.2952.2107.475.2345.1819.0132.3631-.0334.516-.1327.1529-.0992.2691-.2458.331-.4173l4.7245-11.6875c.1-.248.2943-.4461.5403-.5508s.5235-.1074.7715-.0074c.248.0999.4461.2942.5508.5402s.1074.5235.0074.7715l-.66 1.65-3.091 7.6615c-.0461.1014-.0712.2111-.0737.3224-.0026.1114.0174.2221.0588.3255.0413.1034.1032.1974.1819.2762.0786.0789.1725.141.2758.1826s.2139.0619.3253.0596c.1113-.0023.2211-.0271.3226-.073.1015-.0458.1926-.1118.268-.1938.0753-.082.1333-.1785.1703-.2835l3.751-9.2895.6105-1.507c.1013-.2434.2939-.4373.5367-.5402.2427-.1028.5161-.1064.7613-.0098.2461.1012.4421.2957.5452.541.103.2453.1048.5214.0048.768l-4.334 10.7855c-.0696.1822-.0725.3832-.008.5674.0646.1841.1922.3394.3604.4383.1681.0989.3659.135.5581.1019.1923-.033.3666-.1332.492-.2826.0501-.0616.0908-.1301.121-.2035l1.1385-2.816c.1024-.2465.2979-.4426.5441-.5456s.5231-.1046.7704-.0044c.2461.1012.4421.2957.5452.541.103.2453.1048.5214.0048.768l-1.606 3.971c-.0461.1014-.0712.2111-.0737.3224-.0026.1114.0174.2221.0588.3255.0413.1034.1032.1974.1819.2762.0786.0789.1725.141.2758.1826s.2139.0619.3253.0596c.1113-.0023.2211-.0271.3226-.073.1015-.0458.1926-.1118.268-.1938.0753-.082.1333-.1785.1703-.2835l.352-.869v-.033l.4125-1.023c.1024-.2451.297-.4402.5419-.5431s.5204-.1054.7671-.0069l.088.0385c.2461.1012.4421.2957.5452.541.103.2453.1048.5214.0048.768z" fill="#000"/><path d="m36.8885 30.9155-3.388 8.3875-3.0415 1.947c-.1436.0922-.255.2268-.319.385l-1.2045 2.9755-8.5855-3.465 1.199-2.9755c.0589-.1465.0742-.307.044-.462l-2.068-10.945s0-.0495 0-.0715c-.0662-.2334-.0417-.4833.0684-.6995s.2979-.3828.5256-.4665c.2357-.0879.4966-.0795.7261.0234.2295.103.4093.2921.5004.5266l.55 2.915c.0239.1798.1063.3468.2345.475.1283.1283.2952.2107.475.2345.1819.0132.3631-.0334.516-.1327.1529-.0992.2691-.2458.331-.4173l4.7245-11.6875c.1-.248.2943-.4461.5403-.5508s.5235-.1074.7715-.0074c.248.0999.4461.2942.5508.5402s.1074.5235.0074.7715l-.66 1.65-3.091 7.6615c-.0461.1014-.0712.2111-.0737.3224-.0026.1114.0174.2221.0588.3255.0413.1034.1032.1974.1819.2762.0786.0789.1725.141.2758.1826s.2139.0619.3253.0596c.1113-.0023.2211-.0271.3226-.073.1015-.0458.1926-.1118.268-.1938.0753-.082.1333-.1785.1703-.2835l3.751-9.2895.6105-1.507c.1013-.2434.2939-.4373.5367-.5402.2427-.1028.5161-.1064.7613-.0098.2461.1012.4421.2957.5452.541.103.2453.1048.5214.0048.768l-4.334 10.7855c-.0696.1822-.0725.3832-.008.5674.0646.1841.1922.3394.3604.4383.1681.0989.3659.135.5581.1019.1923-.033.3666-.1332.492-.2826.0501-.0616.0908-.1301.121-.2035l1.1385-2.816c.1024-.2465.2979-.4426.5441-.5456s.5231-.1046.7704-.0044c.2461.1012.4421.2957.5452.541.103.2453.1048.5214.0048.768l-1.606 3.971c-.0461.1014-.0712.2111-.0737.3224-.0026.1114.0174.2221.0588.3255.0413.1034.1032.1974.1819.2762.0786.0789.1725.141.2758.1826s.2139.0619.3253.0596c.1113-.0023.2211-.0271.3226-.073.1015-.0458.1926-.1118.268-.1938.0753-.082.1333-.1785.1703-.2835l.352-.869v-.033l.4125-1.023c.1024-.2451.297-.4402.5419-.5431s.5204-.1054.7671-.0069l.088.0385c.2461.1012.4421.2957.5452.541.103.2453.1048.5214.0048.768z" fill="#fff"/></svg>

<svg width="55" height="55" viewBox="0 0 55 55" fill="none" xmlns="http://www.w3.org/2000/svg">
<path d="M17.996 19.0135C18.0705 19.0952 18.1606 19.1612 18.2611 19.2074C18.3615 19.2536 18.4703 19.2791 18.5808 19.2825C18.6913 19.2858 18.8014 19.2669 18.9045 19.2269C19.0076 19.1869 19.1016 19.1265 19.1809 19.0494C19.2602 18.9723 19.3232 18.8801 19.3661 18.7782C19.409 18.6763 19.431 18.5668 19.4308 18.4562C19.4306 18.3456 19.4081 18.2362 19.3648 18.1345C19.3214 18.0327 19.2581 17.9408 19.1785 17.864L18.0785 16.72H24.1285C24.3473 16.72 24.5571 16.6331 24.7118 16.4784C24.8666 16.3236 24.9535 16.1138 24.9535 15.895C24.9535 15.6762 24.8666 15.4663 24.7118 15.3116C24.5571 15.1569 24.3473 15.07 24.1285 15.07H18.0785L19.1785 13.926C19.2581 13.8492 19.3214 13.7573 19.3648 13.6555C19.4081 13.5538 19.4306 13.4444 19.4308 13.3338C19.431 13.2232 19.409 13.1137 19.3661 13.0118C19.3232 12.9099 19.2602 12.8176 19.1809 12.7406C19.1016 12.6635 19.0076 12.6031 18.9045 12.5631C18.8014 12.5231 18.6913 12.5042 18.5808 12.5075C18.4703 12.5109 18.3615 12.5364 18.2611 12.5826C18.1606 12.6288 18.0705 12.6948 17.996 12.7765L15.5265 15.3175C15.377 15.4715 15.2933 15.6776 15.2933 15.8922C15.2933 16.1069 15.377 16.313 15.5265 16.467L17.996 19.0135Z" fill="black"/>
<path d="M38.401 29.502C38.2661 29.1807 38.0688 28.8893 37.8205 28.6448C37.5722 28.4003 37.2779 28.2075 36.9545 28.0775L36.85 28.05C36.5217 27.9173 36.1701 27.8518 35.816 27.8575C35.9378 27.4605 35.9643 27.0405 35.8936 26.6313C35.8229 26.2221 35.6568 25.8354 35.4089 25.5023C35.161 25.1692 34.8381 24.8992 34.4664 24.714C34.0948 24.5289 33.6848 24.4338 33.2695 24.4365L35.585 18.7C35.8472 18.0506 35.8423 17.3239 35.5714 16.6781C35.3005 16.0323 34.7855 15.5196 34.1385 15.2515C33.611 15.0337 33.0267 14.9943 32.4746 15.1393C31.9226 15.2842 31.433 15.6056 31.0805 16.0545C30.7792 15.7245 30.3991 15.4764 29.9758 15.3334C29.5525 15.1904 29.0997 15.1572 28.6601 15.2368C28.2204 15.3165 27.8081 15.5065 27.4619 15.789C27.1157 16.0715 26.8468 16.4373 26.6805 16.852L22.979 25.949L22.9405 25.7455C22.9421 25.7144 22.9421 25.6831 22.9405 25.652C22.8331 25.3172 22.6591 25.0077 22.4289 24.7419C22.1987 24.4762 21.9172 24.2597 21.6012 24.1056C21.2852 23.9514 20.9413 23.8628 20.5902 23.845C20.2391 23.8272 19.888 23.8806 19.558 24.002C18.9414 24.2227 18.4299 24.6665 18.1244 25.2459C17.819 25.8252 17.7418 26.498 17.908 27.1315L19.932 37.8015L18.513 41.316C18.4684 41.4179 18.4448 41.5278 18.4437 41.639C18.4426 41.7503 18.464 41.8606 18.5067 41.9634C18.5493 42.0661 18.6123 42.1592 18.6919 42.237C18.7714 42.3148 18.8659 42.3757 18.9695 42.416L29.084 46.5025C29.1859 46.5472 29.2958 46.5707 29.4071 46.5718C29.5183 46.5729 29.6286 46.5515 29.7314 46.5089C29.8342 46.4662 29.9272 46.4032 30.005 46.3237C30.0828 46.2441 30.1437 46.1497 30.184 46.046L31.5975 42.548L34.6445 40.601C34.7881 40.5088 34.8996 40.3742 34.9635 40.216L38.4505 31.5865C38.5842 31.2539 38.6488 30.8975 38.6403 30.5392C38.6318 30.1808 38.5504 29.8279 38.401 29.502ZM36.8885 30.9155L33.5005 39.303L30.459 41.25C30.3154 41.3422 30.204 41.4768 30.14 41.635L28.9355 44.6105L20.35 41.1455L21.549 38.17C21.6079 38.0235 21.6232 37.863 21.593 37.708L19.525 26.763C19.525 26.763 19.525 26.7135 19.525 26.6915C19.4588 26.4581 19.4833 26.2082 19.5934 25.992C19.7035 25.7758 19.8913 25.6092 20.119 25.5255C20.3547 25.4376 20.6156 25.446 20.8451 25.5489C21.0746 25.6519 21.2544 25.841 21.3455 26.0755L21.8955 28.9905C21.9194 29.1703 22.0018 29.3373 22.13 29.4655C22.2583 29.5938 22.4252 29.6762 22.605 29.7C22.7869 29.7132 22.9681 29.6666 23.121 29.5673C23.2739 29.4681 23.3901 29.3215 23.452 29.15L28.1765 17.4625C28.2765 17.2145 28.4708 17.0164 28.7168 16.9117C28.9628 16.807 29.2403 16.8043 29.4883 16.9043C29.7363 17.0042 29.9344 17.1985 30.0391 17.4445C30.1438 17.6905 30.1465 17.968 30.0465 18.216L29.3865 19.866L26.2955 27.5275C26.2494 27.6289 26.2243 27.7386 26.2218 27.8499C26.2192 27.9613 26.2392 28.072 26.2806 28.1754C26.3219 28.2788 26.3838 28.3728 26.4625 28.4516C26.5411 28.5305 26.635 28.5926 26.7383 28.6342C26.8416 28.6758 26.9522 28.6961 27.0636 28.6938C27.1749 28.6915 27.2847 28.6667 27.3862 28.6208C27.4877 28.575 27.5788 28.509 27.6542 28.427C27.7295 28.345 27.7875 28.2485 27.8245 28.1435L31.5755 18.854L32.186 17.347C32.2873 17.1036 32.4799 16.9097 32.7227 16.8068C32.9654 16.704 33.2388 16.7004 33.484 16.797C33.7301 16.8982 33.9261 17.0927 34.0292 17.338C34.1322 17.5833 34.134 17.8594 34.034 18.106L29.7 28.8915C29.6304 29.0737 29.6275 29.2747 29.692 29.4589C29.7566 29.643 29.8842 29.7983 30.0524 29.8972C30.2205 29.9961 30.4183 30.0322 30.6105 29.9991C30.8028 29.9661 30.9771 29.8659 31.1025 29.7165C31.1526 29.6549 31.1933 29.5864 31.2235 29.513L32.362 26.697C32.4644 26.4505 32.6599 26.2544 32.9061 26.1514C33.1523 26.0484 33.4292 26.0468 33.6765 26.147C33.9226 26.2482 34.1186 26.4427 34.2217 26.688C34.3247 26.9333 34.3265 27.2094 34.2265 27.456L32.6205 31.427C32.5744 31.5284 32.5493 31.6381 32.5468 31.7494C32.5442 31.8608 32.5642 31.9715 32.6056 32.0749C32.6469 32.1783 32.7088 32.2723 32.7875 32.3511C32.8661 32.43 32.96 32.4921 33.0633 32.5337C33.1666 32.5753 33.2772 32.5956 33.3886 32.5933C33.4999 32.591 33.6097 32.5662 33.7112 32.5203C33.8127 32.4745 33.9038 32.4085 33.9792 32.3265C34.0545 32.2445 34.1125 32.148 34.1495 32.043L34.5015 31.174V31.141L34.914 30.118C35.0164 29.8729 35.211 29.6778 35.4559 29.5749C35.7008 29.472 35.9763 29.4695 36.223 29.568L36.311 29.6065C36.5571 29.7077 36.7531 29.9022 36.8562 30.1475C36.9592 30.3928 36.961 30.6689 36.861 30.9155H36.8885Z" fill="black"/>
<path d="M36.8885 30.9155L33.5005 39.303L30.459 41.25C30.3154 41.3422 30.204 41.4768 30.14 41.635L28.9355 44.6105L20.35 41.1455L21.549 38.17C21.6079 38.0235 21.6232 37.863 21.593 37.708L19.525 26.763C19.525 26.763 19.525 26.7135 19.525 26.6915C19.4588 26.4581 19.4833 26.2082 19.5934 25.992C19.7035 25.7758 19.8913 25.6092 20.119 25.5255C20.3547 25.4376 20.6156 25.446 20.8451 25.5489C21.0746 25.6519 21.2544 25.841 21.3455 26.0755L21.8955 28.9905C21.9194 29.1703 22.0018 29.3373 22.13 29.4655C22.2583 29.5938 22.4252 29.6762 22.605 29.7C22.7869 29.7132 22.9681 29.6666 23.121 29.5673C23.2739 29.4681 23.3901 29.3215 23.452 29.15L28.1765 17.4625C28.2765 17.2145 28.4708 17.0164 28.7168 16.9117C28.9628 16.807 29.2403 16.8043 29.4883 16.9043C29.7363 17.0042 29.9344 17.1985 30.0391 17.4445C30.1438 17.6905 30.1465 17.968 30.0465 18.216L29.3865 19.866L26.2955 27.5275C26.2494 27.6289 26.2243 27.7386 26.2218 27.8499C26.2192 27.9613 26.2392 28.072 26.2806 28.1754C26.3219 28.2788 26.3838 28.3728 26.4625 28.4516C26.5411 28.5305 26.635 28.5926 26.7383 28.6342C26.8416 28.6758 26.9522 28.6961 27.0636 28.6938C27.1749 28.6915 27.2847 28.6667 27.3862 28.6208C27.4877 28.575 27.5788 28.509 27.6542 28.427C27.7295 28.345 27.7875 28.2485 27.8245 28.1435L31.5755 18.854L32.186 17.347C32.2873 17.1036 32.4799 16.9097 32.7227 16.8068C32.9654 16.704 33.2388 16.7004 33.484 16.797C33.7301 16.8982 33.9261 17.0927 34.0292 17.338C34.1322 17.5833 34.134 17.8594 34.034 18.106L29.7 28.8915C29.6304 29.0737 29.6275 29.2747 29.692 29.4589C29.7566 29.643 29.8842 29.7983 30.0524 29.8972C30.2205 29.9961 30.4183 30.0322 30.6105 29.9991C30.8028 29.9661 30.9771 29.8659 31.1025 29.7165C31.1526 29.6549 31.1933 29.5864 31.2235 29.513L32.362 26.697C32.4644 26.4505 32.6599 26.2544 32.9061 26.1514C33.1523 26.0484 33.4292 26.0468 33.6765 26.147C33.9226 26.2482 34.1186 26.4427 34.2217 26.688C34.3247 26.9333 34.3265 27.2094 34.2265 27.456L32.6205 31.427C32.5744 31.5284 32.5493 31.6381 32.5468 31.7494C32.5442 31.8608 32.5642 31.9715 32.6056 32.0749C32.6469 32.1783 32.7088 32.2723 32.7875 32.3511C32.8661 32.43 32.96 32.4921 33.0633 32.5337C33.1666 32.5753 33.2772 32.5956 33.3886 32.5933C33.4999 32.591 33.6097 32.5662 33.7112 32.5203C33.8127 32.4745 33.9038 32.4085 33.9792 32.3265C34.0545 32.2445 34.1125 32.148 34.1495 32.043L34.5015 31.174V31.141L34.914 30.118C35.0164 29.8729 35.211 29.6778 35.4559 29.5749C35.7008 29.472 35.9763 29.4695 36.223 29.568L36.311 29.6065C36.5571 29.7077 36.7531 29.9022 36.8562 30.1475C36.9592 30.3928 36.961 30.6689 36.861 30.9155H36.8885Z" fill="white"/>
</svg>
